X:1
T:Caledonian Laddie
M:C
L:1/8
R:Hornpipe
S:O'Farrell - Pocket Companion, vol. II (c. 1806)
Z:AK/Fiddler's Companion
K:D
D2 | D3E {G}FE FA | {c}BA Bd e3f | (dc) (BA) (Bd) (AF) | (GB) (E2 E)G (FE) |
D3E {G}FE FA | {c}BA Bd e3f | (dc) (BA) (Bd) (AG) | FA D2D2 :| de |
f2f2 (gf) (ed) | (cd) (ec)  A2 Bc | d2B2 (Bc) (de) | f2B2B2 (cd) | A3B (AF) (EF) |
D2d2d2 (cB) | A3B (BA) (GF) | B2E2E3F | D3E (FD) (FA) | d2d2 {d/e/} f3D |
E3F (GE) (GB) | e2e2 {e/f/} g2 (ef) | (gf) (e^d) eBe=d | (dB) (ce) A2 (Bc) | d3F (EF) (GA) | F2D2D2 ||

